components/ui-node-icon/src/postgresSource/postgresSource.small.svg

<svg width="16" height="16" viewBox="0 0 16 16" fill="none" xmlns="http://www.w3.org/2000/svg">
  <g clip-path="url(#clip0_507_834)">
    <path d="M11.4187 0C10.797 0.0046243 10.179 0.095033 9.58201 0.268667L9.54001 0.282C9.16349 0.215458 8.78231 0.178678 8.40001 0.172C7.61468 0.158667 6.94001 0.349333 6.39601 0.666667C5.86001 0.480667 4.74801 0.16 3.57601 0.224C2.76001 0.268667 1.86934 0.516667 1.20934 1.21333C0.551343 1.91 0.203343 2.988 0.276676 4.45467C0.296676 4.85933 0.41201 5.51933 0.603343 6.374C0.794676 7.22867 1.06334 8.22933 1.39868 9.142C1.73401 10.0553 2.10134 10.8753 2.67534 11.4327C2.96201 11.712 3.35668 11.9467 3.82201 11.9273C4.14868 11.914 4.44401 11.7707 4.69868 11.5593C4.82268 11.7227 4.95534 11.794 5.07601 11.86C5.22801 11.9433 5.37601 12 5.52934 12.0373C5.80468 12.106 6.27601 12.198 6.82801 12.104C7.01601 12.0727 7.21401 12.0113 7.41134 11.924C7.41868 12.144 7.42734 12.3593 7.43601 12.5773C7.46334 13.268 7.48068 13.906 7.68801 14.4653C7.72134 14.5567 7.81268 15.0273 8.17268 15.4427C8.53268 15.8587 9.23801 16.118 10.0413 15.946C10.608 15.8247 11.3287 15.606 11.8073 14.9247C12.2807 14.2513 12.494 13.2853 12.536 11.7187C12.5467 11.634 12.5593 11.562 12.5727 11.4947L12.6853 11.5047H12.6987C13.3033 11.532 13.9593 11.446 14.5073 11.1913C14.9927 10.9667 15.36 10.7393 15.6273 10.336C15.694 10.236 15.7673 10.1153 15.7873 9.90733C15.8073 9.69933 15.688 9.374 15.49 9.224C15.0933 8.92267 14.844 9.03733 14.5767 9.09267C14.3133 9.15089 14.045 9.18348 13.7753 9.19C14.546 7.892 15.0987 6.51333 15.414 5.29333C15.6007 4.57333 15.7053 3.90933 15.714 3.32867C15.7227 2.748 15.6753 2.234 15.3273 1.78933C14.24 0.4 12.7113 0.016 11.5287 0.00266667C11.492 0.002 11.4553 0.00133333 11.4187 0.002V0ZM11.3873 0.426667C12.506 0.416 13.9353 0.73 14.9613 2.04133C15.192 2.336 15.2607 2.76667 15.2527 3.29733C15.244 3.82733 15.146 4.462 14.9667 5.15733C14.6187 6.504 13.9613 8.074 13.0353 9.48267C13.068 9.5059 13.1034 9.52515 13.1407 9.54C13.334 9.62 13.7747 9.68867 14.654 9.508C14.8753 9.46133 15.0373 9.43 15.2053 9.558C15.2462 9.5926 15.2784 9.63619 15.2996 9.68535C15.3208 9.7345 15.3303 9.78789 15.3273 9.84133C15.3184 9.92225 15.2885 9.99945 15.2407 10.0653C15.0707 10.3207 14.7353 10.5627 14.3053 10.762C13.9247 10.9393 13.3787 11.032 12.8947 11.0373C12.652 11.04 12.428 11.0213 12.238 10.962L12.226 10.9573C12.1527 11.664 11.984 13.0593 11.874 13.696C11.786 14.2093 11.632 14.6173 11.338 14.9227C11.0447 15.228 10.6293 15.412 10.0707 15.532C9.37868 15.6807 8.87401 15.5207 8.54868 15.2467C8.22401 14.9733 8.07534 14.6107 7.98601 14.3887C7.92468 14.2353 7.89268 14.0367 7.86201 13.7713C7.83134 13.506 7.80868 13.1813 7.79334 12.8153C7.77292 12.2549 7.76625 11.6941 7.77334 11.1333C7.48427 11.3981 7.12507 11.574 6.73868 11.64C6.27934 11.718 5.86934 11.6413 5.62468 11.58C5.50407 11.5497 5.38764 11.5047 5.27801 11.446C5.16468 11.3853 5.05668 11.3167 4.98468 11.1813C4.94237 11.1038 4.92891 11.0138 4.94668 10.9273C4.96921 10.8397 5.02035 10.762 5.09201 10.7067C5.22401 10.5993 5.39868 10.5393 5.66201 10.4847C6.14134 10.386 6.30868 10.3187 6.41068 10.238C6.49734 10.1687 6.59534 10.0287 6.76868 9.82333C6.76785 9.81423 6.76718 9.80512 6.76668 9.796C6.45646 9.78727 6.15269 9.7055 5.88001 9.55733C5.78001 9.66267 5.26934 10.2027 4.64668 10.952C4.38468 11.2653 4.09534 11.4453 3.79001 11.458C3.48468 11.4713 3.20868 11.3173 2.97401 11.09C2.50534 10.6347 2.13134 9.85133 1.80534 8.966C1.48001 8.08067 1.21534 7.09467 1.02734 6.25467C0.838676 5.41467 0.727343 4.73733 0.711343 4.41067C0.641343 3.02267 0.96601 2.08733 1.52268 1.49733C2.08001 0.907333 2.84401 0.684 3.58868 0.641333C4.92534 0.564667 6.19468 1.03067 6.45134 1.13067C6.94601 0.794667 7.58334 0.585333 8.37934 0.598667C8.75724 0.603967 9.13326 0.652732 9.50001 0.744L9.51334 0.738C9.67476 0.681258 9.83924 0.633627 10.006 0.595333C10.4588 0.489703 10.9218 0.433596 11.3867 0.428L11.3873 0.426667ZM11.4887 0.873333H11.3913C11.0094 0.87866 10.6289 0.921533 10.2553 1.00133C11.086 1.36933 11.7133 1.936 12.1553 2.50133C12.4624 2.89276 12.7161 3.32318 12.91 3.78133C12.9833 3.95733 13.0327 4.106 13.0607 4.22133C13.0747 4.27933 13.084 4.328 13.0873 4.37867C13.0887 4.404 13.09 4.43 13.0793 4.47467C13.0793 4.47667 13.076 4.48133 13.0753 4.48333C13.0953 5.06733 12.9507 5.46333 12.9333 6.02067C12.92 6.42467 13.0233 6.89933 13.0487 7.41733C13.0727 7.904 13.014 8.43867 12.698 8.96333C12.7247 8.99533 12.7487 9.02733 12.774 9.05933C13.61 7.74267 14.2127 6.286 14.534 5.044C14.706 4.37533 14.7973 3.76933 14.8053 3.28933C14.812 2.80933 14.7227 2.46133 14.6087 2.316C13.714 1.172 12.5033 0.880667 11.4887 0.872667V0.873333ZM8.29534 1.044C7.50734 1.046 6.94201 1.284 6.51334 1.64067C6.07134 2.00933 5.77468 2.514 5.58001 3.03067C5.34868 3.644 5.26934 4.23733 5.23801 4.64L5.24668 4.63467C5.48468 4.50133 5.79734 4.368 6.13201 4.29067C6.46668 4.214 6.82734 4.19 7.15401 4.31667C7.48068 4.44333 7.75068 4.74133 7.84868 5.19333C8.31801 7.36467 7.70268 8.172 7.47601 8.78133C7.39002 9.00219 7.31635 9.22765 7.25534 9.45667C7.28401 9.45 7.31268 9.442 7.34134 9.43933C7.50134 9.426 7.62668 9.47933 7.70134 9.51133C7.92934 9.606 8.08601 9.80467 8.17068 10.0313C8.19268 10.0907 8.20868 10.1547 8.21801 10.2207C8.22786 10.2478 8.23239 10.2765 8.23134 10.3053C8.20607 11.1359 8.20896 11.967 8.24001 12.7973C8.25534 13.156 8.27801 13.472 8.30668 13.7213C8.33534 13.97 8.37601 14.1593 8.40201 14.2233C8.48734 14.4367 8.61201 14.716 8.83734 14.906C9.06268 15.0953 9.38601 15.222 9.97668 15.0953C10.4887 14.9853 10.8047 14.8327 11.016 14.6133C11.2267 14.394 11.3527 14.0887 11.4333 13.6213C11.554 12.9213 11.7967 10.8913 11.826 10.5093C11.8127 10.2213 11.8553 10 11.9473 9.83133C12.042 9.658 12.1887 9.552 12.3153 9.49467C12.3787 9.466 12.438 9.44667 12.4867 9.43267C12.4352 9.35862 12.3811 9.28636 12.3247 9.216C12.1421 8.99451 11.9925 8.74773 11.8807 8.48333C11.8271 8.37415 11.77 8.26675 11.7093 8.16133C11.6207 8.00133 11.5087 7.80133 11.3913 7.57667C11.1567 7.12667 10.9013 6.58133 10.7687 6.05C10.6367 5.51933 10.6173 4.97 10.956 4.58267C11.256 4.23867 11.7827 4.096 12.5733 4.176C12.55 4.106 12.536 4.048 12.4967 3.95467C12.3179 3.53392 12.0846 3.13853 11.8027 2.77867C11.1327 1.922 10.048 1.07267 8.37201 1.04533H8.29534V1.044ZM3.86734 1.07867C3.78268 1.07867 3.69801 1.08133 3.61401 1.086C2.94068 1.12467 2.30401 1.32 1.84868 1.80267C1.39268 2.28533 1.09268 3.07667 1.15801 4.38667C1.17068 4.63467 1.27868 5.32933 1.46401 6.15467C1.64868 6.98 1.91068 7.95133 2.22534 8.80933C2.54068 9.66733 2.92268 10.414 3.28534 10.7673C3.46801 10.944 3.62668 11.0153 3.77068 11.0093C3.91534 11.0027 4.08934 10.9193 4.30201 10.664C4.68974 10.1963 5.09217 9.74095 5.50868 9.29867C5.21315 9.04207 4.98697 8.7152 4.85101 8.3482C4.71504 7.9812 4.67366 7.58587 4.73068 7.19867C4.79934 6.706 4.80868 6.24533 4.80068 5.88133C4.79268 5.52667 4.76734 5.29067 4.76734 5.14333C4.76722 5.13911 4.76722 5.13489 4.76734 5.13067V5.12733L4.76668 5.12333V5.12267C4.76628 4.3552 4.89984 3.59354 5.16134 2.872C5.34801 2.376 5.62601 1.872 6.04268 1.464C5.63334 1.32933 4.90668 1.124 4.12001 1.08533C4.03563 1.081 3.95116 1.07878 3.86668 1.07867H3.86734ZM12.1327 4.6C11.68 4.606 11.426 4.72267 11.2927 4.87533C11.104 5.092 11.086 5.472 11.2033 5.94C11.32 6.40867 11.5613 6.93267 11.788 7.368C11.9013 7.586 12.0113 7.782 12.1 7.94133C12.1893 8.10133 12.2547 8.21467 12.2947 8.31133C12.3313 8.40067 12.372 8.47933 12.4133 8.55267C12.5887 8.18267 12.62 7.81933 12.602 7.44067C12.5787 6.972 12.47 6.49267 12.486 6.00733C12.504 5.44 12.616 5.07067 12.626 4.632C12.4624 4.61081 12.2976 4.60012 12.1327 4.6ZM6.64334 4.67667C6.50506 4.67796 6.36733 4.6945 6.23268 4.726C5.9643 4.7912 5.7058 4.89187 5.46401 5.02533C5.38222 5.0692 5.30438 5.12006 5.23134 5.17733L5.21668 5.19067C5.22068 5.288 5.24001 5.524 5.24801 5.87133C5.25601 6.25133 5.24668 6.736 5.17334 7.26067C5.01401 8.40067 5.84134 9.34467 6.81334 9.346C6.87001 9.112 6.96334 8.87467 7.05668 8.62467C7.32734 7.89533 7.86001 7.36333 7.41134 5.28733C7.33801 4.94733 7.19268 4.81 6.99268 4.73267C6.88058 4.69302 6.76222 4.67404 6.64334 4.67667ZM11.9213 4.81267H11.9547C11.9987 4.814 12.0393 4.81867 12.0747 4.82733C12.1107 4.83533 12.1413 4.84733 12.1667 4.864C12.1797 4.87205 12.1908 4.88273 12.1995 4.89536C12.2081 4.908 12.2139 4.92229 12.2167 4.93733L12.216 4.94267H12.2167H12.216C12.2173 4.97431 12.2092 5.00564 12.1927 5.03267C12.173 5.06926 12.1483 5.10292 12.1193 5.13267C12.0517 5.20714 11.9611 5.25688 11.862 5.274C11.7655 5.28566 11.6682 5.2612 11.5887 5.20533C11.5561 5.18344 11.5269 5.15694 11.502 5.12667C11.4804 5.10288 11.4659 5.07357 11.46 5.042C11.4586 5.02662 11.4604 5.01112 11.4652 4.99644C11.47 4.98177 11.4778 4.96823 11.488 4.95667C11.5099 4.93181 11.5364 4.91143 11.566 4.89667C11.63 4.86067 11.7167 4.834 11.8147 4.81933C11.8513 4.814 11.8873 4.81133 11.9213 4.81067V4.81267ZM6.70801 4.92467C6.74334 4.92467 6.78068 4.928 6.81868 4.93333C6.92068 4.94733 7.01134 4.97467 7.08068 5.01467C7.11449 5.03232 7.14459 5.05631 7.16934 5.08533C7.18282 5.10073 7.19297 5.11874 7.19917 5.13824C7.20536 5.15774 7.20746 5.17832 7.20534 5.19867C7.19893 5.237 7.18157 5.27265 7.15534 5.30133C7.12807 5.33482 7.09593 5.36403 7.06001 5.388C6.97331 5.44942 6.86681 5.47629 6.76134 5.46333C6.65356 5.44562 6.55491 5.39206 6.48134 5.31133C6.45004 5.27882 6.42355 5.24201 6.40268 5.202C6.3807 5.1668 6.37108 5.12528 6.37534 5.084C6.38534 5.012 6.44468 4.97467 6.50268 4.954C6.56874 4.93289 6.63807 4.92386 6.70734 4.92733L6.70801 4.92467ZM12.748 9.82L12.746 9.82067C12.648 9.856 12.5673 9.87067 12.4993 9.90067C12.4306 9.92714 12.3739 9.97789 12.34 10.0433C12.298 10.12 12.262 10.256 12.2727 10.4873C12.3028 10.5081 12.3362 10.5239 12.3713 10.534C12.4853 10.5687 12.6767 10.5913 12.89 10.588C13.3153 10.5833 13.8387 10.484 14.1167 10.3547C14.3447 10.2487 14.5564 10.1106 14.7453 9.94467H14.7447C13.816 10.1367 13.2913 10.0853 12.9693 9.95267C12.8894 9.9194 12.8148 9.87447 12.748 9.81933V9.82ZM7.39401 9.88267H7.38001C7.34468 9.886 7.29334 9.898 7.19401 10.008C6.96201 10.268 6.88068 10.4313 6.68934 10.584C6.49801 10.736 6.24934 10.8173 5.75268 10.9193C5.59534 10.9513 5.50534 10.9867 5.44534 11.0153C5.46468 11.0313 5.46268 11.0353 5.49201 11.0507C5.56468 11.0907 5.65801 11.126 5.73334 11.1453C5.94668 11.1987 6.29734 11.2607 6.66334 11.1987C7.02934 11.136 7.41001 10.9607 7.73468 10.5053C7.79068 10.4267 7.79668 10.3107 7.75068 10.186C7.70401 10.0613 7.60201 9.954 7.53001 9.924C7.48717 9.90333 7.44122 9.88981 7.39401 9.884V9.88267Z" fill="var(--tbl--colors--brand--postgres)"/>
  </g>
  <defs>
    <clipPath id="clip0_507_834">
      <rect width="16" height="16" fill="white"/>
    </clipPath>
  </defs>
</svg>

<svg xmlns="http://www.w3.org/2000/svg" width="16" height="16" fill="none" viewBox="0 0 16 16">
  <g clip-path="url(#a)">
    <path fill="var(--tbl--colors--brand--postgres)" d="M11.419 0a6.756 6.756 0 0 0-1.837.269L9.54.282A7.281 7.281 0 0 0 8.4.172C7.615.159 6.94.349 6.396.667 5.86.48 4.748.16 3.576.224c-.816.045-1.707.293-2.367.99C.551 1.91.203 2.987.277 4.453c.02.405.135 1.065.326 1.92A22.6 22.6 0 0 0 1.4 9.142c.335.913.702 1.733 1.276 2.29.287.28.682.515 1.147.495.327-.013.622-.156.877-.368.124.164.256.235.377.301.152.083.3.14.453.177.276.069.747.161 1.299.067.188-.031.386-.093.583-.18l.025.653c.027.691.045 1.329.252 1.888.033.092.125.562.485.978.36.416 1.065.675 1.868.503.567-.121 1.288-.34 1.766-1.021.474-.674.687-1.64.729-3.206.01-.085.023-.157.037-.224l.112.01h.014c.604.027 1.26-.059 1.808-.314.486-.224.853-.452 1.12-.855.067-.1.14-.22.16-.429.02-.208-.099-.533-.297-.683-.397-.301-.646-.187-.913-.131a4.18 4.18 0 0 1-.802.097 15.334 15.334 0 0 0 1.639-3.897c.187-.72.291-1.384.3-1.964.009-.581-.039-1.095-.387-1.54C14.24.4 12.711.016 11.53.003c-.037-.001-.074-.002-.11-.001V0Zm-.032.427c1.119-.011 2.548.303 3.574 1.614.231.295.3.726.292 1.256-.009.53-.107 1.165-.286 1.86a14.948 14.948 0 0 1-1.932 4.326.504.504 0 0 0 .106.057c.193.08.634.149 1.513-.032.221-.047.383-.078.551.05a.346.346 0 0 1 .122.283.469.469 0 0 1-.086.224c-.17.256-.506.498-.936.697-.38.177-.926.27-1.41.275a2.162 2.162 0 0 1-.657-.075l-.012-.005c-.073.707-.242 2.102-.352 2.739-.088.513-.242.921-.536 1.227-.293.305-.709.489-1.267.609-.692.149-1.197-.011-1.522-.285-.325-.274-.474-.636-.563-.858-.061-.154-.093-.352-.124-.618-.03-.265-.053-.59-.069-.956-.02-.56-.027-1.12-.02-1.682a2.04 2.04 0 0 1-1.034.507 2.73 2.73 0 0 1-1.114-.06 1.518 1.518 0 0 1-.347-.134.64.64 0 0 1-.293-.265.373.373 0 0 1-.038-.254.407.407 0 0 1 .145-.22c.132-.108.307-.168.57-.222.48-.099.647-.166.749-.247.086-.07.184-.21.358-.415a.757.757 0 0 1-.002-.027 1.973 1.973 0 0 1-.887-.239c-.1.106-.61.646-1.233 1.395-.262.313-.552.493-.857.506-.305.013-.581-.14-.816-.368-.469-.455-.843-1.239-1.169-2.124a22.206 22.206 0 0 1-.778-2.711C.84 5.415.727 4.737.711 4.41c-.07-1.388.255-2.324.812-2.914C2.08.907 2.844.684 3.589.641c1.336-.076 2.606.39 2.862.49C6.946.795 7.583.585 8.38.599c.378.005.754.054 1.121.145l.013-.006a4.57 4.57 0 0 1 .493-.143 6.418 6.418 0 0 1 1.38-.167l.001-.001Zm.102.446h-.098a5.828 5.828 0 0 0-1.136.128c.831.368 1.458.935 1.9 1.5.307.392.561.822.755 1.28.073.176.123.325.15.44a.91.91 0 0 1 .027.158.29.29 0 0 1-.008.096l-.004.008c.02.584-.124.98-.142 1.538-.013.404.09.878.116 1.396.024.487-.035 1.022-.351 1.546.027.032.05.064.076.096a14.565 14.565 0 0 0 1.76-4.015c.172-.669.263-1.275.271-1.755.007-.48-.082-.828-.196-.973-.895-1.144-2.106-1.435-3.12-1.443Zm-3.194.171c-.788.002-1.353.24-1.782.597-.442.368-.738.873-.933 1.39a5.896 5.896 0 0 0-.342 1.609l.009-.005c.238-.134.55-.267.885-.344.335-.077.695-.101 1.022.026.327.126.597.424.695.876.469 2.172-.146 2.979-.373 3.588-.086.221-.16.447-.22.676.028-.007.057-.015.085-.018a.73.73 0 0 1 .36.072.876.876 0 0 1 .47.52c.022.06.038.124.047.19.01.027.014.056.013.084-.025.83-.022 1.662.009 2.492.015.359.038.675.067.924.028.249.069.438.095.502.085.214.21.493.435.683.226.19.549.316 1.14.19.512-.11.828-.263 1.039-.483.21-.219.337-.524.417-.992.121-.7.364-2.73.393-3.112-.013-.288.03-.509.121-.678a.79.79 0 0 1 .368-.336c.064-.029.123-.048.172-.062a3.978 3.978 0 0 0-.162-.217 2.97 2.97 0 0 1-.444-.733 5.522 5.522 0 0 0-.172-.322c-.088-.16-.2-.36-.318-.584-.234-.45-.49-.996-.622-1.527-.132-.53-.152-1.08.187-1.467.3-.344.827-.487 1.617-.407-.023-.07-.037-.128-.076-.221a5.213 5.213 0 0 0-.694-1.176c-.67-.857-1.755-1.706-3.431-1.734h-.077v-.001Zm-4.428.035c-.084 0-.169.002-.253.007-.673.039-1.31.234-1.765.717-.456.482-.756 1.274-.691 2.584.013.248.12.942.306 1.768.185.825.447 1.796.761 2.654.316.858.698 1.605 1.06 1.958.183.177.342.248.486.242.144-.006.318-.09.531-.345.388-.468.79-.923 1.207-1.365a2.331 2.331 0 0 1-.778-2.1c.068-.493.078-.954.07-1.318-.008-.354-.034-.59-.034-.738v-.02c0-.768.133-1.53.394-2.251.187-.496.465-1 .882-1.408-.41-.135-1.136-.34-1.923-.379a5.072 5.072 0 0 0-.253-.006ZM12.133 4.6c-.453.006-.707.123-.84.275-.189.217-.207.597-.09 1.065.117.469.358.993.585 1.428.113.218.223.414.312.573.09.16.155.274.195.37.036.09.077.168.118.242.176-.37.207-.734.189-1.112-.023-.469-.132-.948-.116-1.434.018-.567.13-.936.14-1.375a3.863 3.863 0 0 0-.493-.032Zm-5.49.077a1.88 1.88 0 0 0-.41.049 3.11 3.11 0 0 0-.769.3c-.082.043-.16.094-.233.151l-.014.014c.004.097.023.333.031.68.008.38-.001.865-.075 1.39-.159 1.14.668 2.084 1.64 2.085.057-.234.15-.471.244-.721.27-.73.803-1.262.354-3.338-.073-.34-.218-.477-.418-.554a.982.982 0 0 0-.35-.056Zm5.278.136h.034a.586.586 0 0 1 .12.014c.036.008.066.02.092.037a.11.11 0 0 1 .05.073l-.001.006a.16.16 0 0 1-.023.09.446.446 0 0 1-.074.1.451.451 0 0 1-.257.141.393.393 0 0 1-.273-.069.404.404 0 0 1-.087-.078.173.173 0 0 1-.042-.085.114.114 0 0 1 .028-.085.257.257 0 0 1 .078-.06.858.858 0 0 1 .355-.086v.002Zm-5.213.112c.035 0 .073.003.11.008a.73.73 0 0 1 .263.082.297.297 0 0 1 .088.07.149.149 0 0 1 .036.114.201.201 0 0 1-.05.102.433.433 0 0 1-.095.087.427.427 0 0 1-.299.075.485.485 0 0 1-.28-.152.473.473 0 0 1-.078-.109.187.187 0 0 1-.028-.118c.01-.072.07-.11.128-.13a.577.577 0 0 1 .204-.027l.001-.002Zm6.04 4.895h-.002c-.098.036-.179.05-.247.08a.302.302 0 0 0-.159.143c-.042.077-.078.213-.067.444.03.021.063.037.098.047.114.035.306.057.519.054.425-.005.949-.104 1.227-.233.228-.106.44-.244.628-.41-.929.192-1.454.14-1.776.008a.878.878 0 0 1-.221-.134v.001Zm-5.354.063H7.38c-.035.003-.087.015-.186.125-.232.26-.313.423-.505.576-.191.152-.44.233-.936.335a1.282 1.282 0 0 0-.308.096c.02.016.018.02.047.036.073.04.166.075.241.094.214.054.564.116.93.054.366-.063.747-.238 1.072-.694.056-.078.062-.194.016-.319a.495.495 0 0 0-.221-.262.435.435 0 0 0-.136-.04v-.001Z"/>
  </g>
  <defs>
    <clipPath id="a">
      <path fill="#fff" d="M0 0h16v16H0z"/>
    </clipPath>
  </defs>
</svg>
